!!!COM: Scriabin, Alexander
!!!OTL@@FR: Prélude
!!!OTL@@EN: Prelude
!!!OPR@@FR: 5 Préludes
!!!OPR@@EN: 5 Preludes
!!!OPS: 74
!!!ONM: 4
!!!ODT: 1914
!!!AGN: Prelude
**kern	**kern	**dynam
*staff2	*staff1	*staff1/2
*Ipiano	*Ipiano	*
*clefF4	*clefG2	*
*k[]	*k[]	*
*X:	*X:	*
*M3/4	*M3/4	*
*^	*^	*
4C#X	4A	4e	4ccn	.
=1	=1	=1	=1	=1
2F	4G#X	4cn	4.b	.
.	4A	4d#X	.	.
.	.	.	8g#X	.
4C#X	4A	[4e	8dd#XL	.
.	.	.	8ccnJ	.
=2	=2	=2	=2	=2
4F#X	4A#X	8eL]	4an	.
.	.	8d#XJ	.	.
*	*	*	*^	*
8FnL	8BL	8ryy	8dnL	8g-XL	.
8DnJ	8G#XJ	[8a\	8fnJ	8aJ	.
4C#X	4A#	4a\]	8eL	8dd#XL	.
.	.	.	8g#XJ	8ccnJ	.
=3	=3	=3	=3	=3	=3
2F#X	4A#X	4d#X\	12gnL	4ee	.
.	.	.	12b#X	.	.
.	.	.	12bnJ	.	.
.	4dn	4dn\	4a#X	4gg	.
*	*	*	*v	*v	*
4E#X	4c#X	4an	8gg#XL	.
.	.	.	8ffnJ	.
=4	=4	=4	=4	=4
6En	6cn	8g#XL	2aa	.
.	.	8gnJ	.	.
6D#X	6B	.	.	.
.	.	8f#XL	.	.
6Dn	6B-X	.	.	.
.	.	8fnJ	.	.
4C#X	4A	4e	8gg#XL	.
.	.	.	8ccnJ	.
=5	=5	=5	=5	=5
2F	4G#X	4cn	4.b	.
.	4A	4d#X	.	.
.	.	.	8g#X	.
4C#X	4A	[4e	8dd#XL	.
.	.	.	8ccnJ	.
=6	=6	=6	=6	=6
4F#X	4A#X	8eL]	4an	.
.	.	8d#XJ	.	.
*	*	*	*^	*
8FnL	8BL	8ryy	8dnL	8g-XL	.
8DnJ	8G#XJ	[8a\	8fnJ	8aJ	.
4C#X	4A#	8.a\L]	4e	8dd#XL	.
.	.	.	.	8ccnJ	.
.	.	16g#XJk	.	.	.
=7	=7	=7	=7	=7	=7
2F#X	4A#X	4d#X\	12gnL	4ee	.
.	.	.	12b#X	.	.
.	.	.	12bnJ	.	.
.	4dn	4dn\	8a#XL	4gg	.
.	.	.	8anJ	.	.
4Fn	4d-X	8rdd	4a-X	8ggL	.
.	.	8cc\	.	8ff-XJ	.
=8	=8	=8	=8	=8	=8
2B-X	4dn	4g\	12cc-XL	4aa-X	.
.	.	.	12ee	.	.
.	.	.	12ee-XJ	.	.
.	4g-X	4g-X\	4dd	4ccc-X	.
4A	4f	4rd	4dd-X	8cccnL	.
.	.	.	.	8aanJ	.
*	*	*	*v	*v	*
=9	=9	=9	=9	=9
6A-X	6f-X	8ccL	2ddd-X	.
.	.	8cc-XJ	.	.
6G	6e-X	.	.	.
.	.	8b-XL	.	.
6G-X	6e--	.	.	.
.	.	8b--J	.	.
*	*	*	*^	*
4F	4d-X	4a-X\	8rdd	8ggL	.
.	.	.	8ccn	8ff-XJ	.
=10	=10	=10	=10	=10	=10
2B-X	4dn	4gn\	12cc-XL	4aa-X	.
.	.	.	12ee	.	.
.	.	.	12ee-XJ	.	.
.	4g-X	4g-X\	4dd	4ccc-X	.
4A	4f	4rd	4dd-X	8cccnL	.
.	.	.	.	8aanJ	.
*	*	*	*v	*v	*
=11	=11	=11	=11	=11
6A-X	6f-X	8cc	2ddd-X	.
.	.	4cc-X	.	.
6G	6e-X	.	.	.
6A-	6f-	.	.	.
.	.	8ccn	.	.
4An	4fn	4dd-X	8cccL	.
.	.	.	8aanJ	.
=12	=12	=12	=12	=12
6A-X	6f-X	8cc	2ddd-X	.
.	.	4cc-X	.	.
6G	6e-X	.	.	.
6A-	6f-	.	.	.
.	.	8ccn	.	.
4An	4fn	4dd-X	8cccL	.
.	.	.	8aanJ	.
=13	=13	=13	=13	=13
4A-X	4f-X	4cc	4ddd-X	.
4G	4e-X	4cc-X	8aa-XL	.
.	.	.	8ffnJ	.
4F#X	4dn	4b-X	4aan	.
=14	=14	=14	=14	=14
4Fn	4d-X	4a	8eenL	.
.	.	.	8dd-XJ	.
4E	4c	4a-X	4ff	.
4E#X	4c#X	4an	8gg#XL	.
.	.	.	8ffJ	.
=15	=15	=15	=15	=15
4En	4cn	4g#X	4aa	.
4D#X	4B	4gn	8eeL	.
.	.	.	8cc#XJ	.
4Dn	4B-X	4g-X	4ff	.
=16	=16	=16	=16	=16
4C#X	4A	4f	8ccnL	.
.	.	.	8aJ	.
[2BB#X	[2G#X	[2e	[2dd-X	.
=17	=17	=17	=17	=17
2BB#]	2G#]	2e]	2dd-]	.
8BB#XL	8G#XL	4e	8dd#XL	.
8C#XJ	8AJ	.	8ccnJ	.
=18	=18	=18	=18	=18
[2.F	4G#X	4c	4.b	.
.	[2A	[2d#X	.	.
.	.	.	[8g#X	.
.	.	.	4g#_	.
=19	=19	=19	=19	=19
2F]	2A]	2d#]	2g#]	.
4C#X	4A	[4e	8dd#XL	.
.	.	.	8ccnJ	.
=20	=20	=20	=20	=20
4F#X	4A#X	8eL]	4an	.
.	.	8d#XJ	.	.
8FnL	8BL	8dnL	8g-XL	.
[8DnJ	[8G#XJ	[8fJ	[8aJ	.
4D_	4G#_	4f_	4a_	.
=21	=21	=21	=21	=21
2D]	2G#]	2f]	2a]	.
4D	8AL	4f	8eeL	.
.	8B-XJ	.	8aJ 8dd-X	.
=22	=22	=22	=22	=22
4G	4Bn	8fL	4b-X	.
.	.	8eJ	.	.
[2F#X	[2c	[2e-X	[2g	.
=23	=23	=23	=23	=23
4F#]	4c]	4e-]	4g]	.
2D#X	2A	2f#X	2b-X	.
=24	=24	=24	=24	=24
2.AA 2.E	2.cn	2.a	2.cc#X	.
*v	*v	*	*	*
*	*v	*v	*
==	==	==
*-	*-	*-
!!!system-decoration: {(*)}
!!!filter: flipper -a
!!!ENC: Bryan Jacob Bell
!!!END: November 2021 to April 2022
!!!PED: Günter Philipp
!!!PTL: Ausgewählte Klavierwerke (Edition Peters)
